cssgg/spinner.svg

<svg
  width="24"
  height="24"
  viewBox="0 0 24 24"
  fill="none"
  xmlns="http://www.w3.org/2000/svg"
>
  <path
    opacity="0.2"
    fill-rule="evenodd"
    clip-rule="evenodd"
    d="M12 19C15.866 19 19 15.866 19 12C19 8.13401 15.866 5 12 5C8.13401 5 5 8.13401 5 12C5 15.866 8.13401 19 12 19ZM12 22C17.5228 22 22 17.5228 22 12C22 6.47715 17.5228 2 12 2C6.47715 2 2 6.47715 2 12C2 17.5228 6.47715 22 12 22Z"
    fill="currentColor"
  />
  <path
    d="M2 12C2 6.47715 6.47715 2 12 2V5C8.13401 5 5 8.13401 5 12H2Z"
    fill="currentColor"
  />
</svg>

<svg viewBox="0 0 24 24" xmlns="http://www.w3.org/2000/svg"><path opacity=".2" fill-rule="evenodd" d="M12 19c3.86 0 7-3.14 7-7 0-3.87-3.14-7-7-7 -3.87 0-7 3.13-7 7 0 3.86 3.13 7 7 7Zm0 3c5.52 0 10-4.48 10-10 0-5.53-4.48-10-10-10C6.47 2 2 6.47 2 12c0 5.52 4.47 10 10 10Z"/><path d="M2 12C2 6.47 6.47 2 12 2v3c-3.87 0-7 3.13-7 7H2Z"/></svg>
